packages/components/src/telekom/icons/weather/cloudy-sleet/selected.svg

<?xml version="1.0" encoding="UTF-8"?>
<svg width="24px" height="24px" viewBox="0 0 24 24" version="1.1" xmlns="http://www.w3.org/2000/svg" xmlns:xlink="http://www.w3.org/1999/xlink">
    <title>icon/weather/cloudy-sleet/selected</title>
    <g id="icon/weather/cloudy-sleet/selected" stroke="none" stroke-width="1" fill="none" fill-rule="evenodd">
        <path d="M11.5986,19.17145 C11.6830375,19.0940125 11.8111156,19.1474969 11.8284174,19.2484979 L11.8286,19.29445 L11.3591,22.29345 C11.2571,22.94895 10.6421,23.39745 9.9866,23.29445 C9.03305833,23.1454292 8.65030399,22.0031557 9.27356423,21.3092924 L9.3606,21.22145 L11.5986,19.17145 Z M6.5201,15.82095 L7.2011,17.00045 L7.8816,15.82245 L8.9206,16.42245 L8.2406,17.59995 L9.6006,17.59995 L9.6006,18.79995 L8.2401,18.79995 L8.9201,19.97795 L7.8806,20.57795 L7.2011,19.40045 L6.5201,20.57895 L5.4811,19.97895 L6.1621,18.79995 L4.8006,18.79995 L4.8006,17.59995 L6.1616,17.59995 L5.4806,16.42095 L6.5201,15.82095 Z M13.8756,13.81545 C13.9471714,13.7503071 14.0551102,13.7931643 14.0734688,13.8769544 L14.0746,13.92195 L13.5531,17.25545 C13.4416,17.96545 12.7761,18.45145 12.0661,18.34045 C11.0317,18.17869 10.617076,16.9372756 11.2973312,16.1866132 L11.3881,16.09545 L13.8756,13.81545 Z M10.5071,5.94995 C12.8611,5.94995 14.9346,7.41695 15.7401,9.62395 C17.1211,10.35145 18.0011,11.79845 18.0011,13.37695 C18.0011,15.35095 16.6506,17.00945 14.8326,17.47745 L14.8371,17.45695 L15.3586,14.12295 C15.4236,13.71395 15.3061,13.29745 15.0366,12.98195 C14.7661,12.66545 14.3721,12.48395 13.9556,12.48395 C13.6517429,12.48395 13.3585388,12.5809296 13.1156612,12.7597751 L12.9986,12.85595 L10.5096,15.13695 C10.4059333,15.2316167 10.3113778,15.3331722 10.2260815,15.4402833 L10.1051,15.60495 L7.7006,14.21095 C7.430225,14.054325 7.104725,14.0339812 6.81989883,14.1505887 L6.7006,14.20895 L4.0021,15.76095 C3.7261,15.9191722 3.54451975,16.1982833 3.50757599,16.5094383 L3.5006,16.62745 L3.5006,17.42895 C1.9391,16.93845 0.8011,15.47695 0.8011,13.74595 C0.8011,12.34645 1.5561,11.06245 2.7531,10.38045 C2.8551,8.55845 4.3606,7.10745 6.1961,7.10745 C6.4666,7.10745 6.7356,7.14045 7.0016,7.20545 C7.9946,6.39345 9.2281,5.94995 10.5071,5.94995 Z M19.7471,10.54645 C19.9551,10.33845 20.278458,10.3153389 20.5120931,10.4771167 L20.5951,10.54645 L21.4446,11.39495 C21.6791,11.62895 21.6791,12.00945 21.4446,12.24345 C21.3271,12.36095 21.1736,12.41945 21.0201,12.41945 C20.8973,12.41945 20.7745,12.38169 20.670132,12.306682 L20.5956,12.24345 L19.7471,11.39545 C19.5126,11.16095 19.5126,10.78045 19.7471,10.54645 Z M16.6006,4.39995 C18.2551,4.39995 19.6006,5.74545 19.6006,7.39995 C19.6006,8.53195 18.9701,9.51845 18.0426,10.02945 C17.6686,9.54945 17.2201,9.12545 16.6986,8.79045 C16.1331,7.52745 15.2081,6.49545 14.0711,5.79395 C14.6036,4.95745 15.5371,4.39995 16.6006,4.39995 Z M22.8506,6.79995 C23.1816,6.79995 23.4506,7.06845 23.4506,7.39995 C23.4506,7.6983 23.23271,7.94562 22.947833,7.9921005 L22.8506,7.99995 L21.6506,7.99995 C21.3191,7.99995 21.0506,7.73145 21.0506,7.39995 C21.0506,7.1016 21.268085,6.85428 21.5532455,6.8077995 L21.6506,6.79995 L22.8506,6.79995 Z M11.7571,2.55645 C11.9655444,2.34845 12.2885568,2.32533889 12.5224608,2.48711667 L12.6056,2.55645 L13.4546,3.40495 C13.6891,3.63945 13.6891,4.01945 13.4546,4.25345 C13.3371,4.37095 13.1836,4.42945 13.0301,4.42945 C12.9073,4.42945 12.7845,4.39169 12.680132,4.316682 L12.6056,4.25345 L11.7571,3.40495 C11.5231,3.17095 11.5231,2.79045 11.7571,2.55645 Z M20.5961,2.55645 C20.8306,2.32245 21.2101,2.32195 21.4446,2.55645 C21.6530444,2.76489444 21.6762049,3.08830185 21.5140815,3.32194246 L21.4446,3.40495 L20.5956,4.25345 C20.4786,4.37095 20.3251,4.42945 20.1711,4.42945 C20.0176,4.42945 19.8641,4.37045 19.7471,4.25345 C19.5391,4.04545 19.5159889,3.72209198 19.6777667,3.48810569 L19.7471,3.40495 L20.5961,2.55645 Z M16.6006,0.54995 C16.8985,0.54995 17.14618,0.767435 17.192737,1.0525955 L17.2006,1.14995 L17.2006,2.34995 C17.2006,2.68145 16.9316,2.94995 16.6006,2.94995 C16.30225,2.94995 16.05493,2.732465 16.0084495,2.4473045 L16.0006,2.34995 L16.0006,1.14995 C16.0006,0.81845 16.2691,0.54995 16.6006,0.54995 Z" id="Shape" fill="#262626"></path>
    </g>
</svg>

<svg width="24" height="24" xmlns="http://www.w3.org/2000/svg"><path d="M11.599 19.171a.138.138 0 01.23.077v.046l-.47 3a1.2 1.2 0 01-1.372 1c-.954-.149-1.337-1.29-.713-1.985l.087-.088 2.238-2.05zm-5.079-3.35L7.201 17l.68-1.179 1.04.6-.68 1.178H9.6v1.2H8.24l.68 1.178-1.04.6L7.2 19.4l-.68 1.179-1.04-.6.681-1.18H4.801V17.6h1.36l-.68-1.18 1.04-.6zm7.356-2.006a.12.12 0 01.197.062l.002.045-.522 3.333a1.302 1.302 0 11-2.256-1.068l.091-.092 2.488-2.28zM10.507 5.95a5.56 5.56 0 015.233 3.674 4.25 4.25 0 012.261 3.753 4.236 4.236 0 01-3.168 4.1l.004-.02.522-3.334a1.42 1.42 0 00-2.243-1.363l-.117.096-2.49 2.281a2.626 2.626 0 00-.283.303l-.12.165L7.7 14.21a1 1 0 00-.881-.06l-.12.058-2.698 1.552a.999.999 0 00-.494.748l-.007.118v.802a3.861 3.861 0 01-2.7-3.683c0-1.4.755-2.684 1.952-3.366.102-1.822 1.608-3.273 3.443-3.273.27 0 .54.033.806.098a5.53 5.53 0 013.505-1.255zm9.24 4.596a.6.6 0 01.765-.069l.083.07.85.848a.6.6 0 01-.775.912l-.074-.064-.849-.848a.6.6 0 010-.849zM16.601 4.4c1.654 0 3 1.345 3 3 0 1.132-.63 2.118-1.558 2.63a5.43 5.43 0 00-1.344-1.24 6.768 6.768 0 00-2.628-2.996 2.997 2.997 0 012.53-1.394zm6.25 2.4a.6.6 0 01.097 1.192L22.85 8h-1.2a.6.6 0 01-.098-1.192l.098-.008h1.2zM11.757 2.556a.6.6 0 01.765-.069l.084.07.849.848a.6.6 0 01-.775.912l-.074-.064-.849-.848a.6.6 0 010-.849zm8.84 0a.6.6 0 01.917.766l-.07.083-.848.848a.596.596 0 01-.849 0 .6.6 0 01-.07-.765l.07-.083.85-.849zM16.6.55a.6.6 0 01.592.503l.008.097v1.2a.6.6 0 01-1.193.097l-.007-.097v-1.2a.6.6 0 01.6-.6z" fill="#000" fill-rule="evenodd"/></svg>
